svg/fluentui-system-icons/ic_fluent_pin_off_28_filled.svg

<svg width="28" height="28" viewBox="0 0 28 28" fill="none" xmlns="http://www.w3.org/2000/svg">
<path d="M3.28033 2.21967C2.98744 1.92678 2.51257 1.92677 2.21967 2.21967C1.92678 2.51256 1.92677 2.98743 2.21967 3.28033L9.79214 10.8529L6.16681 12.2473C4.98482 12.7019 4.66211 14.2226 5.55759 15.1181L8.68919 18.2497L3 23.939L3.00002 24.9997L4.06066 24.9997L9.74985 19.3103L12.8815 22.4419C13.7769 23.3374 15.2976 23.0147 15.7522 21.8327L17.1466 18.2075L24.7194 25.7805C25.0123 26.0734 25.4872 26.0734 25.7801 25.7805C26.073 25.4876 26.073 25.0127 25.7801 24.7198L3.28033 2.21967ZM11.7988 8.61664L19.3828 16.2008L23.6149 14.1961C25.646 13.234 26.1109 10.5501 24.5217 8.96087L19.0387 3.47781C17.4494 1.88861 14.7655 2.3535 13.8034 4.38463L11.7988 8.61664Z" fill="#212121"/>
</svg>

<svg xmlns="http://www.w3.org/2000/svg" width="28" height="28"><path d="M3.28 2.22a.75.75 0 1 0-1.06 1.06l7.572 7.573-3.625 1.394a1.75 1.75 0 0 0-.61 2.871L8.69 18.25 3 23.939v1.06h1.06l5.69-5.689 3.132 3.132a1.75 1.75 0 0 0 2.87-.61l1.395-3.625 7.572 7.573a.75.75 0 0 0 1.061-1.06L3.28 2.22Zm8.52 6.397 7.584 7.584 4.232-2.005c2.031-.962 2.496-3.646.907-5.235L19.04 3.478c-1.59-1.59-4.274-1.125-5.236.907L11.8 8.617Z"/></svg>
